img/menu/m-icons-action.svg

<svg width="16" height="18" viewBox="0 0 16 18" fill="none" xmlns="http://www.w3.org/2000/svg">
<path d="M0 3.61924C0 2.54509 0.349135 1.67535 1.0474 1.01002C1.74567 0.336673 2.66065 0 3.79232 0C4.94006 0 5.86305 0.332665 6.56132 0.997996C7.25959 1.65531 7.60873 2.5491 7.60873 3.67936V4.54509C7.60873 5.62725 7.25959 6.49699 6.56132 7.15431C5.86305 7.81162 4.94808 8.14028 3.8164 8.14028C2.6767 8.14028 1.7537 7.81162 1.0474 7.15431C0.349135 6.48898 0 5.59519 0 4.47295L0 3.61924ZM2.31151 4.54509C2.31151 5.02605 2.44796 5.41483 2.72084 5.71142C3.00176 6 3.36694 6.14429 3.8164 6.14429C4.26586 6.14429 4.62302 5.99599 4.88789 5.6994C5.15275 5.40281 5.28518 5.00601 5.28518 4.50902V3.61924C5.28518 3.13828 5.15275 2.7495 4.88789 2.45291C4.62302 2.15631 4.25784 2.00802 3.79232 2.00802C3.35089 2.00802 2.99373 2.15631 2.72084 2.45291C2.44796 2.74148 2.31151 3.14629 2.31151 3.66733V4.54509ZM8.37923 13.4669C8.37923 12.3848 8.73238 11.515 9.43868 10.8577C10.145 10.1924 11.0599 9.85972 12.1836 9.85972C13.3233 9.85972 14.2423 10.1884 14.9406 10.8457C15.6469 11.495 16 12.3928 16 13.5391V14.4048C16 15.479 15.6549 16.3487 14.9646 17.014C14.2744 17.6713 13.3554 18 12.2077 18C11.0519 18 10.1249 17.6673 9.42664 17.002C8.72837 16.3367 8.37923 15.4549 8.37923 14.3567V13.4669ZM10.6907 14.4048C10.6907 14.8457 10.8352 15.2224 11.1242 15.5351C11.4131 15.8477 11.7743 16.004 12.2077 16.004C13.1869 16.004 13.6764 15.4629 13.6764 14.3808V13.4669C13.6764 12.986 13.54 12.6012 13.2671 12.3126C12.9942 12.016 12.6331 11.8677 12.1836 11.8677C11.7341 11.8677 11.373 12.016 11.1001 12.3126C10.8272 12.6012 10.6907 12.998 10.6907 13.503V14.4048ZM4.50263 16.4489L2.80512 15.5351L11.3649 1.8517L13.0625 2.76553L4.50263 16.4489Z" fill="#F44336"/>
</svg>

<svg width="16" height="18" fill="none" xmlns="http://www.w3.org/2000/svg"><path d="M0 3.62c0-1.075.35-1.945 1.047-2.61C1.746.337 2.661 0 3.792 0c1.148 0 2.071.333 2.77.998.698.657 1.047 1.551 1.047 2.681v.866c0 1.082-.35 1.952-1.048 2.61-.698.657-1.613.985-2.745.985-1.14 0-2.062-.328-2.769-.986C.35 6.49 0 5.595 0 4.473v-.854zm2.312.925c0 .481.136.87.409 1.166.28.289.646.433 1.095.433.45 0 .807-.148 1.072-.445.265-.296.397-.693.397-1.19v-.89c0-.48-.132-.87-.397-1.166-.265-.297-.63-.445-1.096-.445-.441 0-.798.148-1.071.445-.273.288-.41.693-.41 1.214v.878zm6.067 8.922c0-1.082.353-1.952 1.06-2.61.706-.665 1.62-.997 2.745-.997 1.14 0 2.058.328 2.757.986.706.649 1.059 1.547 1.059 2.693v.866c0 1.074-.345 1.944-1.035 2.609-.69.657-1.61.986-2.757.986-1.156 0-2.083-.333-2.781-.998-.699-.665-1.048-1.547-1.048-2.645v-.89zm2.312.938c0 .44.144.817.433 1.13.29.313.65.469 1.084.469.979 0 1.468-.541 1.468-1.623v-.914c0-.481-.136-.866-.409-1.154-.273-.297-.634-.445-1.083-.445-.45 0-.811.148-1.084.445-.273.288-.41.685-.41 1.19v.902zm-6.188 2.044l-1.698-.914 8.56-13.683 1.697.914-8.56 13.683z" fill="#F44336"/></svg>
